;FLAVOR:RepRap
;TIME:681
;Generated with Cura_SteamEngine 2.3.1
;Zmorph3D config for CURA by CeDeROM (http://www.tomek.cedro.info)
;Sliced at: {day} {date} {time}
;Basic settings: Layer height: 0.2 Walls: 1.2 Fill: 20
;Print time: {print_time}
;Filament used: {filament_amount}m {filament_weight}g
;Filament cost: {filament_cost}
M104 200 ;set extruder temperature
M190 S60
M109 S200
G21        ;metric values
G90        ;absolute positioning
M82        ;set extruder to absolute mode
M107       ;start with the fan off
G28 X0 Y0  ;move X/Y to min endstops
G28 Z0     ;move Z to min endstops
G1 Z15.0 F120 ;move the platform down 15mm
G92 E0                  ;zero the extruded length
G1 F200 E3              ;extrude 3mm of feed stock
G92 E0                  ;zero the extruded length again
G1 F120
;Put printing message on LCD screen
M117 Zmorph3D Printing...
;LAYER_COUNT:75
;LAYER:0
M107
G1 F1500 E-6.5
G0 F4800 X50.811 Y56.574 Z.3
;TYPE:SKIRT
G1 F1500 E0
G1 F2400 X51.397 Y56.044 E0.01486
G1 X51.989 Y55.607 E0.0287
G1 X53.621 Y54.516 E0.06563
G1 X54.299 Y54.11 E0.0805
G1 X54.972 Y53.793 E0.09449
G1 X56.786 Y53.042 E0.13142
G1 X57.53 Y52.777 E0.14628
G1 X58.253 Y52.598 E0.16029
G1 X60.159 Y52.22 E0.19684
G1 X60.94 Y52.106 E0.21169
G1 X61.729 Y52.071 E0.22654
G1 X62.517 Y52.117 E0.24139
G1 X62.67 Y52.141 E0.2443
G1 X63.274 Y52.079 E0.25572
G1 X64.064 Y52.079 E0.27058
G1 X64.815 Y52.153 E0.28478
G1 X65.77 Y52.294 E0.30294
G1 X66.9 Y52.547 E0.32472
G1 X68.778 Y53.118 E0.36164
G1 X69.521 Y53.386 E0.3765
G1 X70.184 Y53.701 E0.39031
G1 X71.912 Y54.624 E0.42716
G1 X72.589 Y55.031 E0.44202
G1 X73.183 Y55.473 E0.45595
G1 X74.701 Y56.718 E0.49288
G1 X75.286 Y57.249 E0.50774
G1 X75.784 Y57.801 E0.52172
G1 X77.029 Y59.318 E0.55864
G1 X77.499 Y59.953 E0.5735
G1 X77.877 Y60.585 E0.58735
G1 X78.803 Y62.315 E0.62426
G1 X79.14 Y63.029 E0.63911
G1 X79.392 Y63.739 E0.65328
G1 X79.96 Y65.618 E0.69021
G1 X80.211 Y66.742 E0.71187
G1 X80.351 Y67.696 E0.73001
G1 X80.426 Y68.483 E0.74488
G1 X80.421 Y69.272 E0.75972
G1 X80.362 Y69.825 E0.77018
G1 X80.424 Y70.427 E0.78157
G1 X80.424 Y71.217 E0.79643
G1 X80.285 Y72.346 E0.81783
G1 X79.907 Y74.252 E0.85438
G1 X79.714 Y75.018 E0.86924
G1 X79.463 Y75.719 E0.88324
G1 X78.712 Y77.533 E0.92017
G1 X78.373 Y78.246 E0.93502
G1 X77.99 Y78.883 E0.94901
G1 X76.9 Y80.514 E0.98591
G1 X76.429 Y81.148 E1.00076
G1 X75.932 Y81.693 E1.01464
G1 X74.546 Y83.08 E1.05152
G1 X73.961 Y83.61 E1.06637
G1 X73.362 Y84.053 E1.08038
G1 X71.729 Y85.144 E1.11733
G1 X71.051 Y85.549 E1.13218
G1 X70.38 Y85.865 E1.14613
G1 X68.566 Y86.616 E1.18306
G1 X67.822 Y86.881 E1.19792
G1 X67.099 Y87.06 E1.21193
G1 X65.193 Y87.438 E1.24848
G1 X64.412 Y87.552 E1.26333
G1 X63.623 Y87.587 E1.27819
G1 X62.835 Y87.541 E1.29303
G1 X62.674 Y87.515 E1.2961
G1 X62.078 Y87.577 E1.30737
G1 X61.288 Y87.577 E1.32223
G1 X60.159 Y87.438 E1.34363
G1 X58.253 Y87.06 E1.38018
G1 X57.487 Y86.867 E1.39504
G1 X56.786 Y86.616 E1.40905
G1 X54.972 Y85.865 E1.44598
G1 X54.259 Y85.526 E1.46083
G1 X53.621 Y85.142 E1.47484
G1 X51.989 Y84.051 E1.51176
G1 X51.356 Y83.58 E1.5266
G1 X50.809 Y83.082 E1.54052
G1 X49.422 Y81.695 E1.57742
G1 X48.892 Y81.109 E1.59228
G1 X48.452 Y80.514 E1.6062
G1 X47.362 Y78.883 E1.6431
G1 X46.957 Y78.205 E1.65796
G1 X46.639 Y77.529 E1.67201
G1 X45.889 Y75.715 E1.70893
G1 X45.624 Y74.971 E1.72379
G1 X45.447 Y74.256 E1.73764
G1 X45.068 Y72.35 E1.7742
G1 X44.953 Y71.569 E1.78905
G1 X44.918 Y70.78 E1.8039
G1 X44.963 Y69.992 E1.81875
G1 X44.988 Y69.834 E1.82176
G1 X44.926 Y69.231 E1.83316
G1 X44.926 Y68.441 E1.84802
G1 X45.067 Y67.3 E1.86965
G1 X45.448 Y65.394 E1.90621
G1 X45.642 Y64.629 E1.92106
G1 X45.889 Y63.943 E1.93477
G1 X46.639 Y62.129 E1.9717
G1 X46.977 Y61.415 E1.98656
G1 X47.361 Y60.777 E2.00056
G1 X48.451 Y59.145 E2.03748
G1 X48.922 Y58.511 E2.05234
G1 X49.424 Y57.96 E2.06636
G1 X50.811 Y56.574 E2.10324
G0 F4800 X51.093 Y56.857
G1 F2400 X51.665 Y56.342 E2.11772
G1 X52.211 Y55.939 E2.13048
G1 X53.843 Y54.848 E2.16741
G1 X54.504 Y54.454 E2.18189
G1 X55.125 Y54.163 E2.19479
G1 X56.939 Y53.412 E2.23172
G1 X57.664 Y53.155 E2.24619
G1 X58.33 Y52.99 E2.25909
G1 X60.236 Y52.612 E2.29564
G1 X60.998 Y52.502 E2.31013
G1 X61.766 Y52.472 E2.32458
G1 X62.534 Y52.521 E2.33906
G1 X62.671 Y52.544 E2.34167
G1 X62.827 Y52.518 E2.34465
G1 X63.595 Y52.469 E2.35912
G1 X64.363 Y52.501 E2.37358
G1 X64.757 Y52.548 E2.38105
G1 X65.712 Y52.689 E2.39921
G1 X66.784 Y52.93 E2.41987
G1 X68.662 Y53.501 E2.4568
G1 X69.385 Y53.763 E2.47126
G1 X69.995 Y54.054 E2.48398
G1 X71.723 Y54.977 E2.52083
G1 X72.382 Y55.374 E2.5353
G1 X72.93 Y55.782 E2.54815
G1 X74.448 Y57.027 E2.58508
G1 X75.016 Y57.545 E2.59954
G1 X75.475 Y58.054 E2.61243
G1 X76.72 Y59.571 E2.64935
G1 X77.177 Y60.191 E2.66384
G1 X77.524 Y60.774 E2.6766
G1 X78.45 Y62.504 E2.71351
G1 X78.777 Y63.2 E2.72797
G1 X79.009 Y63.855 E2.74104
G1 X79.577 Y65.734 E2.77797
G1 X79.816 Y66.801 E2.79854
G1 X79.956 Y67.755 E2.81667
G1 X80.028 Y68.52 E2.83113
G1 X80.02 Y69.289 E2.84559
G1 X79.959 Y69.823 E2.8557
G1 X79.985 Y69.98 E2.8587
G1 X80.034 Y70.748 E2.87317
G1 X80.002 Y71.516 E2.88763
G1 X79.893 Y72.269 E2.90195
G1 X79.515 Y74.175 E2.9385
G1 X79.326 Y74.92 E2.95295
G1 X79.093 Y75.566 E2.96587
G1 X78.342 Y77.38 E3.0028
G1 X78.011 Y78.074 E3.01727
G1 X77.658 Y78.661 E3.03015
G1 X76.568 Y80.292 E3.06705
G1 X76.107 Y80.908 E3.08152
G1 X75.649 Y81.411 E3.09432
G1 X74.263 Y82.798 E3.1312
G1 X73.692 Y83.313 E3.14567
G1 X73.14 Y83.72 E3.15857
G1 X71.507 Y84.811 E3.19551
G1 X70.846 Y85.205 E3.20999
G1 X70.227 Y85.495 E3.22285
G1 X68.413 Y86.246 E3.25978
G1 X67.688 Y86.503 E3.27425
G1 X67.022 Y86.668 E3.28715
G1 X65.116 Y87.046 E3.3237
G1 X64.354 Y87.156 E3.33819
G1 X63.586 Y87.186 E3.35264
G1 X62.818 Y87.137 E3.36712
G1 X62.675 Y87.113 E3.36985
G1 X62.525 Y87.138 E3.37271
G1 X61.757 Y87.187 E3.38718
G1 X60.989 Y87.155 E3.40164
G1 X60.236 Y87.046 E3.41595
G1 X58.33 Y86.668 E3.4525
G1 X57.585 Y86.479 E3.46696
G1 X56.939 Y86.246 E3.47988
G1 X55.125 Y85.495 E3.51681
G1 X54.431 Y85.164 E3.53127
G1 X53.843 Y84.81 E3.54419
G1 X52.211 Y83.719 E3.58111
G1 X51.595 Y83.259 E3.59557
G1 X51.091 Y82.8 E3.6084
G1 X49.704 Y81.413 E3.64529
G1 X49.19 Y80.841 E3.65976
G1 X48.784 Y80.292 E3.6726
G1 X47.694 Y78.661 E3.7095
G1 X47.301 Y78 E3.72397
G1 X47.008 Y77.376 E3.73694
G1 X46.258 Y75.562 E3.77386
G1 X46.002 Y74.837 E3.78832
G1 X45.839 Y74.178 E3.80109
G1 X45.46 Y72.272 E3.83765
G1 X45.349 Y71.511 E3.85211
G1 X45.319 Y70.743 E3.86657
G1 X45.367 Y69.975 E3.88105
G1 X45.391 Y69.833 E3.88376
G1 X45.365 Y69.678 E3.88671
G1 X45.316 Y68.91 E3.90119
G1 X45.348 Y68.142 E3.91565
G1 X45.46 Y67.378 E3.93017
G1 X45.841 Y65.472 E3.96673
G1 X46.03 Y64.727 E3.98119
G1 X46.258 Y64.096 E3.99381
G1 X47.008 Y62.282 E4.03074
G1 X47.339 Y61.587 E4.04522
G1 X47.693 Y60.999 E4.05813
G1 X48.783 Y59.367 E4.09504
G1 X49.243 Y58.75 E4.10952
G1 X49.706 Y58.243 E4.12243
G1 X51.093 Y56.857 E4.15932
G0 F4800 X51.376 Y57.139
G1 F2400 X51.933 Y56.64 E4.17339
G1 X52.434 Y56.272 E4.18508
G1 X54.066 Y55.181 E4.22201
G1 X54.709 Y54.799 E4.23607
G1 X55.278 Y54.532 E4.2479
G1 X57.092 Y53.781 E4.28483
G1 X57.798 Y53.533 E4.2989
G1 X58.408 Y53.383 E4.31072
G1 X60.314 Y53.005 E4.34727
G1 X61.055 Y52.899 E4.36135
G1 X61.802 Y52.872 E4.37541
G1 X62.549 Y52.926 E4.3895
G1 X62.679 Y52.949 E4.39198
G1 X63.159 Y52.888 E4.40109
G1 X63.907 Y52.873 E4.41516
G1 X64.698 Y52.944 E4.4301
G1 X65.653 Y53.085 E4.44826
G1 X66.667 Y53.313 E4.46781
G1 X68.545 Y53.884 E4.50473
G1 X69.248 Y54.139 E4.5188
G1 X69.807 Y54.407 E4.53046
G1 X71.535 Y55.33 E4.56731
G1 X72.175 Y55.717 E4.58138
G1 X72.676 Y56.092 E4.59315
G1 X74.194 Y57.337 E4.63008
G1 X74.746 Y57.841 E4.64414
G1 X75.166 Y58.308 E4.65595
G1 X76.411 Y59.825 E4.69287
G1 X76.854 Y60.428 E4.70694
G1 X77.172 Y60.963 E4.71865
G1 X78.098 Y62.693 E4.75556
G1 X78.415 Y63.37 E4.76962
G1 X78.627 Y63.971 E4.78161
G1 X79.195 Y65.85 E4.81854
G1 X79.42 Y66.859 E4.83798
G1 X79.56 Y67.813 E4.85612
G1 X79.629 Y68.558 E4.87019
G1 X79.618 Y69.305 E4.88425
G1 X79.553 Y69.832 E4.89424
G1 X79.615 Y70.312 E4.90334
G1 X79.63 Y71.06 E4.91741
G1 X79.566 Y71.805 E4.93148
G1 X79.5 Y72.191 E4.93884
G1 X79.122 Y74.097 E4.9754
G1 X78.938 Y74.822 E4.98947
G1 X78.724 Y75.413 E5.00129
G1 X77.973 Y77.227 E5.03822
G1 X77.65 Y77.902 E5.0523
G1 X77.325 Y78.438 E5.06409
G1 X76.235 Y80.069 E5.10099
G1 X75.787 Y80.668 E5.11506
G1 X75.367 Y81.128 E5.12677
G1 X73.981 Y82.515 E5.16366
G1 X73.424 Y83.015 E5.17774
G1 X72.918 Y83.388 E5.18956
G1 X71.285 Y84.479 E5.22651
G1 X70.641 Y84.86 E5.24058
G1 X70.074 Y85.126 E5.25236
G1 X68.26 Y85.877 E5.28929
G1 X67.554 Y86.125 E5.30337
G1 X66.944 Y86.275 E5.31518
G1 X65.038 Y86.653 E5.35174
G1 X64.297 Y86.759 E5.36582
G1 X63.55 Y86.786 E5.37988
G1 X62.803 Y86.732 E5.39397
G1 X62.666 Y86.707 E5.39658
G1 X62.193 Y86.768 E5.40556
G1 X61.445 Y86.783 E5.41963
G1 X60.7 Y86.719 E5.43369
G1 X60.314 Y86.653 E5.44106
G1 X58.408 Y86.275 E5.47761
G1 X57.683 Y86.091 E5.49168
G1 X57.092 Y85.877 E5.50351
G1 X55.278 Y85.126 E5.54044
G1 X54.603 Y84.803 E5.55451
G1 X54.066 Y84.477 E5.56633
G1 X52.434 Y83.386 E5.60326
G1 X51.835 Y82.938 E5.61733
G1 X51.374 Y82.517 E5.62907
G1 X49.987 Y81.13 E5.66597
G1 X49.487 Y80.573 E5.68005
G1 X49.117 Y80.069 E5.69181
G1 X48.027 Y78.438 E5.72871
G1 X47.645 Y77.795 E5.74278
G1 X47.378 Y77.224 E5.75463
G1 X46.628 Y75.41 E5.79156
G1 X46.38 Y74.704 E5.80563
G1 X46.231 Y74.1 E5.81734
G1 X45.852 Y72.194 E5.85389
G1 X45.746 Y71.454 E5.86795
G1 X45.719 Y70.706 E5.88203
G1 X45.772 Y69.96 E5.8961
G1 X45.796 Y69.825 E5.89868
G1 X45.735 Y69.346 E5.90776
G1 X45.72 Y68.598 E5.92184
G1 X45.784 Y67.853 E5.9359
G1 X45.852 Y67.457 E5.94346
G1 X46.233 Y65.551 E5.98002
G1 X46.418 Y64.826 E5.9941
G1 X46.628 Y64.248 E6.00566
G1 X47.378 Y62.434 E6.04259
G1 X47.7 Y61.759 E6.05666
G1 X48.026 Y61.221 E6.06849
G1 X49.116 Y59.589 E6.1054
G1 X49.564 Y58.99 E6.11947
G1 X49.989 Y58.525 E6.13132
G1 X51.376 Y57.139 E6.16821
G0 F4800 X51.659 Y57.422
G1 F2400 X52.2 Y56.938 E6.18186
G1 X52.656 Y56.604 E6.1925
G1 X54.288 Y55.513 E6.22942
G1 X54.913 Y55.143 E6.24308
G1 X55.431 Y54.902 E6.25383
G1 X57.245 Y54.151 E6.29076
G1 X57.931 Y53.91 E6.30444
G1 X58.486 Y53.775 E6.31518
G1 X60.392 Y53.397 E6.35174
G1 X61.111 Y53.295 E6.3654
G1 X61.837 Y53.273 E6.37906
G1 X62.561 Y53.331 E6.39272
G1 X62.666 Y53.351 E6.39473
G1 X62.759 Y53.333 E6.39651
G1 X63.483 Y53.272 E6.41018
G1 X64.209 Y53.291 E6.42384
G1 X64.64 Y53.34 E6.432
G1 X65.595 Y53.481 E6.45016
G1 X66.551 Y53.695 E6.46859
G1 X68.429 Y54.266 E6.50551
G1 X69.111 Y54.516 E6.51917
G1 X69.619 Y54.759 E6.52977
G1 X71.347 Y55.682 E6.56662
G1 X71.967 Y56.059 E6.58027
G1 X72.422 Y56.401 E6.59097
G1 X73.94 Y57.646 E6.6279
G1 X74.476 Y58.137 E6.64158
G1 X74.857 Y58.562 E6.65231
G1 X76.102 Y60.079 E6.68923
G1 X76.531 Y60.665 E6.70289
G1 X76.819 Y61.151 E6.71352
G1 X77.745 Y62.881 E6.75043
G1 X78.052 Y63.54 E6.7641
G1 X78.244 Y64.086 E6.77499
G1 X78.812 Y65.965 E6.81191
G1 X79.024 Y66.917 E6.83026
G1 X79.164 Y67.871 E6.8484
G1 X79.23 Y68.594 E6.86206
G1 X79.216 Y69.32 E6.87571
G1 X79.151 Y69.817 E6.88514
G1 X79.17 Y69.912 E6.88696
G1 X79.231 Y70.636 E6.90063
G1 X79.212 Y71.362 E6.91429
G1 X79.108 Y72.113 E6.92855
G1 X78.73 Y74.019 E6.96511
G1 X78.55 Y74.723 E6.97877
G1 X78.354 Y75.26 E6.98953
G1 X77.603 Y77.074 E7.02646
G1 X77.289 Y77.728 E7.04011
G1 X76.992 Y78.216 E7.05085
G1 X75.902 Y79.847 E7.08775
G1 X75.466 Y80.428 E7.10142
G1 X75.084 Y80.845 E7.11205
G1 X73.698 Y82.232 E7.14894
G1 X73.157 Y82.717 E7.1626
G1 X72.695 Y83.055 E7.17337
G1 X71.062 Y84.146 E7.21031
G1 X70.437 Y84.516 E7.22398
G1 X69.921 Y84.756 E7.23468
G1 X68.107 Y85.507 E7.27161
G1 X67.421 Y85.748 E7.28529
G1 X66.866 Y85.883 E7.29603
G1 X64.96 Y86.261 E7.33259
G1 X64.241 Y86.363 E7.34625
G1 X63.515 Y86.385 E7.35991
G1 X62.791 Y86.327 E7.37357
G1 X62.68 Y86.306 E7.3757
G1 X62.593 Y86.323 E7.37736
G1 X61.869 Y86.384 E7.39103
G1 X61.143 Y86.365 E7.40469
G1 X60.392 Y86.261 E7.41895
G1 X58.486 Y85.883 E7.4555
G1 X57.782 Y85.703 E7.46917
G1 X57.245 Y85.507 E7.47993
G1 X55.431 Y84.756 E7.51686
G1 X54.777 Y84.442 E7.5305
G1 X54.288 Y84.145 E7.54127
G1 X52.656 Y83.054 E7.57819
G1 X52.075 Y82.618 E7.59186
G1 X51.657 Y82.234 E7.60253
G1 X50.27 Y80.847 E7.63943
G1 X49.786 Y80.306 E7.65309
G1 X49.45 Y79.847 E7.66379
G1 X48.36 Y78.216 E7.70069
G1 X47.99 Y77.591 E7.71435
G1 X47.748 Y77.071 E7.72514
G1 X46.998 Y75.257 E7.76206
G1 X46.758 Y74.571 E7.77573
G1 X46.624 Y74.022 E7.78636
G1 X46.245 Y72.116 E7.82292
G1 X46.142 Y71.397 E7.83658
G1 X46.12 Y70.671 E7.85024
G1 X46.177 Y69.947 E7.8639
G1 X46.198 Y69.838 E7.86599
G1 X46.18 Y69.746 E7.86776
G1 X46.119 Y69.022 E7.88142
G1 X46.138 Y68.296 E7.89508
G1 X46.244 Y67.535 E7.90954
G1 X46.625 Y65.629 E7.9461
G1 X46.806 Y64.926 E7.95975
G1 X46.998 Y64.401 E7.97027
G1 X47.748 Y62.587 E8.00719
G1 X48.062 Y61.932 E8.02086
G1 X48.359 Y61.443 E8.03162
G1 X49.449 Y59.811 E8.06853
G1 X49.885 Y59.23 E8.0822
G1 X50.272 Y58.808 E8.09297
G1 X51.659 Y57.422 E8.12985
G0 F4800 X51.942 Y57.705
G1 F2400 X52.467 Y57.237 E8.14308
G1 X52.878 Y56.937 E8.15265
G1 X54.51 Y55.846 E8.18958
G1 X55.117 Y55.488 E8.20284
G1 X55.584 Y55.272 E8.21252
G1 X57.398 Y54.521 E8.24945
G1 X58.063 Y54.289 E8.2627
G1 X58.564 Y54.167 E8.27239
G1 X60.47 Y53.789 E8.30895
G1 X61.167 Y53.692 E8.32218
G1 X61.871 Y53.674 E8.33543
G1 X62.572 Y53.736 E8.34867
G1 X62.683 Y53.759 E8.3508
G1 X63.095 Y53.696 E8.35864
G1 X63.798 Y53.67 E8.37187
G1 X64.582 Y53.735 E8.38667
G1 X65.537 Y53.876 E8.40483
G1 X66.435 Y54.078 E8.42214
G1 X68.313 Y54.649 E8.45907
G1 X68.973 Y54.892 E8.4723
G1 X69.43 Y55.112 E8.48184
G1 X71.158 Y56.035 E8.51869
G1 X71.759 Y56.402 E8.53193
G1 X72.169 Y56.71 E8.54158
G1 X73.687 Y57.955 E8.57851
G1 X74.205 Y58.432 E8.59176
G1 X74.548 Y58.816 E8.60144
G1 X75.793 Y60.333 E8.63836
G1 X76.208 Y60.901 E8.65159
G1 X76.466 Y61.34 E8.66117
G1 X77.392 Y63.07 E8.69808
G1 X77.689 Y63.709 E8.71133
G1 X77.861 Y64.202 E8.72115
G1 X78.429 Y66.081 E8.75808
G1 X78.628 Y66.975 E8.77531
G1 X78.768 Y67.929 E8.79345
G1 X78.831 Y68.63 E8.80668
G1 X78.813 Y69.334 E8.81993
G1 X78.744 Y69.832 E8.82939
G1 X78.807 Y70.248 E8.8373
G1 X78.833 Y70.951 E8.85054
G1 X78.779 Y71.653 E8.86378
G1 X78.716 Y72.035 E8.87106
G1 X78.338 Y73.941 E8.90761
G1 X78.162 Y74.623 E8.92086
G1 X77.984 Y75.107 E8.93056
G1 X77.233 Y76.921 E8.96749
G1 X76.928 Y77.555 E8.98073
G1 X76.66 Y77.994 E8.9904
G1 X75.57 Y79.625 E9.0273
G1 X75.146 Y80.187 E9.04055
G1 X74.801 Y80.562 E9.05013
G1 X73.415 Y81.949 E9.08702
G1 X72.89 Y82.418 E9.10026
G1 X72.473 Y82.722 E9.10997
G1 X70.84 Y83.813 E9.14691
G1 X70.234 Y84.171 E9.16015
G1 X69.768 Y84.386 E9.1698
G1 X67.954 Y85.137 E9.20673
G1 X67.289 Y85.369 E9.21998
G1 X66.788 Y85.491 E9.22968
G1 X64.882 Y85.869 E9.26623
G1 X64.185 Y85.966 E9.27947
G1 X63.481 Y85.984 E9.29272
G1 X62.78 Y85.922 E9.30595
G1 X62.663 Y85.898 E9.3082
G1 X62.257 Y85.96 E9.31593
G1 X61.554 Y85.986 E9.32916
G1 X60.852 Y85.932 E9.3424
G1 X60.47 Y85.869 E9.34968
G1 X58.564 Y85.491 E9.38624
G1 X57.882 Y85.315 E9.39949
G1 X57.398 Y85.137 E9.40919
G1 X55.584 Y84.386 E9.44612
G1 X54.95 Y84.081 E9.45935
G1 X54.51 Y83.812 E9.46905
G1 X52.878 Y82.721 E9.50598
G1 X52.316 Y82.297 E9.51922
G1 X51.94 Y81.951 E9.52883
G1 X50.553 Y80.564 E9.56573
G1 X50.084 Y80.039 E9.57897
G1 X49.782 Y79.625 E9.58861
G1 X48.692 Y77.994 E9.62551
G1 X48.335 Y77.387 E9.63876
G1 X48.117 Y76.918 E9.64849
G1 X47.367 Y75.104 E9.68541
G1 X47.136 Y74.439 E9.69865
G1 X47.016 Y73.944 E9.70823
G1 X46.637 Y72.038 E9.74479
G1 X46.539 Y71.341 E9.75803
G1 X46.521 Y70.637 E9.77128
G1 X46.583 Y69.936 E9.78451
G1 X46.606 Y69.823 E9.78668
G1 X46.543 Y69.41 E9.79454
G1 X46.517 Y68.707 E9.80777
G1 X46.571 Y68.005 E9.82102
G1 X46.636 Y67.614 E9.82847
G1 X47.017 Y65.708 E9.86504
G1 X47.194 Y65.026 E9.87829
G1 X47.367 Y64.554 E9.88775
G1 X48.117 Y62.74 E9.92467
G1 X48.423 Y62.106 E9.93791
G1 X48.691 Y61.665 E9.94762
G1 X49.781 Y60.033 E9.98454
G1 X50.205 Y59.471 E9.99778
G1 X50.555 Y59.091 E10.0075
G1 X51.942 Y57.705 E10.04438
G0 F4800 X52.224 Y57.988
G1 F2400 X52.733 Y57.536 E10.05719
G1 X53.101 Y57.269 E10.06574
G1 X54.733 Y56.178 E10.10266
